**harmony	**harte	**kern	**silbe	**rhyme	**timestamp	**phrase	**leadinstrument
*M4/4	*M4/4	*ICvox	*	*	*	*	*
*	*	*VRlead	*	*	*	*	*
*	*	*Hstimme	*	*	*	*	*
*D:	*D:	*D:	*	*	*	*	*
*	*	*M4/4	*	*	*	*	*
*	*	*clefF4	*	*	*	*	*
1r;	1r	r;	.	.	0	.	r
=1	=1	=1	=1	=1	=1	=1	=1
*>Letter>C	*>Letter>C	*>Letter>C	*>Letter>C	*>Letter>C	*>Letter>C	*>Letter>C	*>Letter>C
*>Label>Intro	*>Label>Intro	*>Label>Intro	*>Label>Intro	*>Label>Intro	*>Label>Intro	*>Label>Intro	*>Label>Intro
1DM	D:maj	1r	.	.	0.384	newline	r
=2	=2	=2	=2	=2	=2	=2	=2
1DM	D:maj	1r	.	.	2.503	.	r
=3	=3	=3	=3	=3	=3	=3	=3
1DM	D:maj	1r	.	.	4.623	.	r
=4	=4	=4	=4	=4	=4	=4	=4
1DM	D:maj	1r	.	.	6.743	.	r
=5	=5	=5	=5	=5	=5	=5	=5
1DM	D:maj	1r	.	.	8.862	newline	r
=6	=6	=6	=6	=6	=6	=6	=6
1DM	D:maj	1r	.	.	10.961	.	r
=7	=7	=7	=7	=7	=7	=7	=7
1DM	D:maj	1r	.	.	13.06	.	r
=8	=8	=8	=8	=8	=8	=8	=8
1DM	D:maj	2r	.	.	15.158	.	r
.	.	4r	.	.	.	.	.
.	.	8r	.	.	.	.	.
.	.	8c	It's	.	.	.	.
=9	=9	=9	=9	=9	=9	=9	=9
*>Letter>A	*>Letter>A	*>Letter>A	*>Letter>A	*>Letter>A	*>Letter>A	*>Letter>A	*>Letter>A
*>Label>Verse	*>Label>Verse	*>Label>Verse	*>Label>Verse	*>Label>Verse	*>Label>Verse	*>Label>Verse	*>Label>Verse
1DM	D:maj	8d	get-	.	17.257	newline	r
.	.	8d	-tin'	.	.	.	.
.	.	8c	near	.	.	.	.
.	.	4d	dawn.	.	.	.	.
.	.	4r	.	.	.	.	.
.	.	8r	.	.	.	.	.
=10	=10	=10	=10	=10	=10	=10	=10
1DM	D:maj	2r	.	.	19.32	.	r
.	.	4r	.	.	.	.	.
.	.	8r	.	.	.	.	.
.	.	8c	When	.	.	.	.
=11	=11	=11	=11	=11	=11	=11	=11
1DM	D:maj	8d	lights	.	21.384	.	r
.	.	8d	close	.	.	.	.
.	.	8c	their	.	.	.	.
.	.	4d	ti-	.	.	.	.
.	.	4A	-red	.	.	.	.
.	.	8G	eyes.	A	.	.	.
=12	=12	=12	=12	=12	=12	=12	=12
1DM	D:maj	2F	_	.	23.447	.	r
.	.	4r	.	.	.	.	.
.	.	8r	.	.	.	.	.
.	.	8c	I'll	.	.	.	.
=13	=13	=13	=13	=13	=13	=13	=13
1DM	D:maj	8d	soon	.	25.51	newline	r
.	.	8d	be	.	.	.	.
.	.	8c	with	.	.	.	.
.	.	4d	you	.	.	.	.
.	.	8A	my	.	.	.	.
.	.	8F	_	.	.	.	.
.	.	8G	love.	.	.	.	.
=14	=14	=14	=14	=14	=14	=14	=14
1DM	D:maj	4F	_	.	27.578	.	r
.	.	2r	.	.	.	.	.
.	.	4r	.	.	.	.	.
=15	=15	=15	=15	=15	=15	=15	=15
1DM	D:maj	8d	give	.	29.645	.	r
.	.	8d	you	.	.	.	.
.	.	8c	my	.	.	.	.
.	.	4d	dawn	.	.	.	.
.	.	8A	su-	.	.	.	.
.	.	8F	_	.	.	.	.
.	.	8G	-prise.	A	.	.	.
=16	=16	=16	=16	=16	=16	=16	=16
1DM	D:maj	8F	_	.	31.712	.	r
.	.	4.A	_	.	.	.	.
.	.	4r	.	.	.	.	.
.	.	8r	.	.	.	.	.
.	.	8f	I'll	.	.	.	.
=17	=17	=17	=17	=17	=17	=17	=17
1GM	G:maj	8g	be	.	33.78	newline	r
.	.	8g	with	.	.	.	.
.	.	8f	you	.	.	.	.
.	.	4g	dar-	.	.	.	.
.	.	4f	-lin'	.	.	.	.
.	.	8d-	soon.	.	.	.	.
=18	=18	=18	=18	=18	=18	=18	=18
1GM	G:maj	4c#	_	.	35.849	.	r
.	.	2r	.	.	.	.	.
.	.	8r	.	.	.	.	.
.	.	8f	I'll	.	.	.	.
=19	=19	=19	=19	=19	=19	=19	=19
1GM	G:maj	8g	be	.	37.918	.	r
.	.	8a	with	.	.	.	.
.	.	8f	you	.	.	.	.
.	.	4g	when	.	.	.	.
.	.	4f	the	.	.	.	.
.	.	[8a	stars	.	.	.	.
=20	=20	=20	=20	=20	=20	=20	=20
1GM	G:maj	8a]	_	.	39.988	.	r
.	.	8g	start	.	.	.	.
.	.	8f	_	.	.	.	.
.	.	4g	fal-	.	.	.	.
.	.	4.f	-lin'.	.	.	.	.
=21	=21	=21	=21	=21	=21	=21	=21
1DM	D:maj	1r	.	.	42.057	newline	r
=22	=22	=22	=22	=22	=22	=22	=22
1DM	D:maj	1r	.	.	44.137	.	r
=23	=23	=23	=23	=23	=23	=23	=23
1DM	D:maj	1r	.	.	46.217	.	r
=24	=24	=24	=24	=24	=24	=24	=24
1DM	D:maj	1r	.	.	48.297	.	r
=25	=25	=25	=25	=25	=25	=25	=25
*>Letter>B	*>Letter>B	*>Letter>B	*>Letter>B	*>Letter>B	*>Letter>B	*>Letter>B	*>Letter>B
*>Label>Chorus	*>Label>Chorus	*>Label>Chorus	*>Label>Chorus	*>Label>Chorus	*>Label>Chorus	*>Label>Chorus	*>Label>Chorus
1AM	A:maj	4r	.	.	50.376	newline	r
.	.	8r	.	.	.	.	.
.	.	4G	I've	.	.	.	.
.	.	4A	been	.	.	.	.
.	.	[8c	wai-	.	.	.	.
=26	=26	=26	=26	=26	=26	=26	=26
2CM	C:maj	8c]	_	.	52.477	.	r
.	.	4A	-ting	.	.	.	.
.	.	4G	so	.	.	.	.
2GM	G:maj	.	.	.	53.528	.	r
.	.	4.A	long	.	.	.	.
=27	=27	=27	=27	=27	=27	=27	=27
1AM	A:maj	4r	.	.	54.578	.	r
.	.	8r	.	.	.	.	.
.	.	4G	to	.	.	.	.
.	.	4A	be	.	.	.	.
.	.	[8c	where	.	.	.	.
=28	=28	=28	=28	=28	=28	=28	=28
2CM	C:maj	8c]	_	.	56.679	.	r
.	.	4A	I'm	.	.	.	.
.	.	4G	go-	.	.	.	.
2GM	G:maj	.	.	.	57.729	.	r
.	.	8A	-in'.	.	.	.	.
.	.	4r	.	.	.	.	.
=29	=29	=29	=29	=29	=29	=29	=29
1AM	A:maj	4r	.	.	58.78	newline	r
.	.	8r	.	.	.	.	.
.	.	4A	In	.	.	.	.
.	.	4c#	the	.	.	.	.
.	.	[8e	sun-	.	.	.	.
=30	=30	=30	=30	=30	=30	=30	=30
2CM	C:maj	8e]	_	.	60.852	.	r
.	.	4c#	-shine	.	.	.	.
.	.	4A	of	.	.	.	.
2GM	G:maj	.	.	.	61.888	.	r
.	.	8c#	your	.	.	.	.
.	.	4r	.	.	.	.	.
=31	=31	=31	=31	=31	=31	=31	=31
1AM	A:maj	4e	love.	.	62.924	.	r
.	.	16d	_	.	.	.	.
.	.	16e	_	.	.	.	.
.	.	8d	_	.	.	.	.
.	.	4c#	_	.	.	.	.
.	.	16B	_	.	.	.	.
.	.	16c#	_	.	.	.	.
.	.	8B	_	.	.	.	.
=32	=32	=32	=32	=32	=32	=32	=32
1AM	A:maj	2A	_	.	64.997	.	r
.	.	2r	.	.	.	.	.
=33	=33	=33	=33	=33	=33	=33	=33
1DM	D:maj	1r	.	.	67.069	newline	r
=34	=34	=34	=34	=34	=34	=34	=34
1DM	D:maj	2r	.	.	69.172	.	r
.	.	4r	.	.	.	.	.
.	.	8r	.	.	.	.	.
.	.	8c	I'm	.	.	.	.
=35	=35	=35	=35	=35	=35	=35	=35
*>Letter>A	*>Letter>A	*>Letter>A	*>Letter>A	*>Letter>A	*>Letter>A	*>Letter>A	*>Letter>A
*>Label>Verse	*>Label>Verse	*>Label>Verse	*>Label>Verse	*>Label>Verse	*>Label>Verse	*>Label>Verse	*>Label>Verse
1DM	D:maj	8d	with	.	71.275	newline	r
.	.	8d	you	.	.	.	.
.	.	8c	my	.	.	.	.
.	.	4d	love.	.	.	.	.
.	.	4.A	_	.	.	.	.
=36	=36	=36	=36	=36	=36	=36	=36
1DM	D:maj	2r	.	.	73.361	.	r
.	.	4r	.	.	.	.	.
.	.	8r	.	.	.	.	.
.	.	8c	The	.	.	.	.
=37	=37	=37	=37	=37	=37	=37	=37
1DM	D:maj	8d	light	.	75.446	.	r
.	.	8d	shi-	.	.	.	.
.	.	8c	-ning	.	.	.	.
.	.	8d	through	.	.	.	.
.	.	8r	.	.	.	.	.
.	.	4A	on	.	.	.	.
.	.	8F#	_	.	.	.	.
=38	=38	=38	=38	=38	=38	=38	=38
1DM	D:maj	16G	you.	B	77.531	.	r
.	.	4..F#	_	.	.	.	.
.	.	8r	.	.	.	.	.
.	.	8.A	Yes	.	.	.	.
.	.	8.c	I'm	.	.	.	.
=39	=39	=39	=39	=39	=39	=39	=39
1DM	D:maj	8d	with	.	79.616	newline	r
.	.	8d	you	.	.	.	.
.	.	8c	my	.	.	.	.
.	.	8d	love.	C	.	.	.
.	.	8c	_	.	.	.	.
.	.	8d	_	.	.	.	.
.	.	4r	.	.	.	.	.
=40	=40	=40	=40	=40	=40	=40	=40
1DM	D:maj	2r	.	.	81.689	.	r
.	.	4r	.	.	.	.	.
.	.	8A	It's	.	.	.	.
.	.	8c	the	.	.	.	.
=41	=41	=41	=41	=41	=41	=41	=41
1DM	D:maj	8d	mor-	.	83.761	.	r
.	.	8d	-ning	.	.	.	.
.	.	8c	of	.	.	.	.
.	.	4d	just	.	.	.	.
.	.	4.f#	we	.	.	.	.
=42	=42	=42	=42	=42	=42	=42	=42
1DM	D:maj	16d	two.	B	85.834	.	r
.	.	16f	_	.	.	.	.
.	.	8d	_	.	.	.	.
.	.	2r	.	.	.	.	.
.	.	8r	.	.	.	.	.
.	.	8f	I'll	.	.	.	.
=43	=43	=43	=43	=43	=43	=43	=43
1GM	G:maj	8g	stay	.	87.906	newline	r
.	.	8g	with	.	.	.	.
.	.	8f	you	.	.	.	.
.	.	4g	dar-	.	.	.	.
.	.	4f	-lin'	.	.	.	.
.	.	16a	now.	.	.	.	.
.	.	[16d	_	.	.	.	.
=44	=44	=44	=44	=44	=44	=44	=44
1GM	G:maj	4d]	_	.	89.972	.	r
.	.	2r	.	.	.	.	.
.	.	8r	.	.	.	.	.
.	.	8f	I'll	.	.	.	.
=45	=45	=45	=45	=45	=45	=45	=45
1GM	G:maj	8g	stay	.	92.039	.	r
.	.	8g	with	.	.	.	.
.	.	8f	you	.	.	.	.
.	.	8g	till	.	.	.	.
.	.	8r	.	.	.	.	.
.	.	8f	my	.	.	.	.
.	.	8r	.	.	.	.	.
.	.	8a	seas	.	.	.	.
=46	=46	=46	=46	=46	=46	=46	=46
1GM	G:maj	8g	_	.	94.105	.	r
.	.	8g	are	.	.	.	.
.	.	8f	_	.	.	.	.
.	.	8g	dried	.	.	.	.
.	.	8f	_	.	.	.	.
.	.	4g	up.	C	.	.	.
.	.	[8f#	_	.	.	.	.
=47	=47	=47	=47	=47	=47	=47	=47
1DM	D:maj	2f#]	_	.	96.171	newline	r
.	.	2r	.	.	.	.	.
=48	=48	=48	=48	=48	=48	=48	=48
1DM	D:maj	1r	.	.	98.273	.	r
=49	=49	=49	=49	=49	=49	=49	=49
1DM	D:maj	1r	.	.	100.376	.	r
=50	=50	=50	=50	=50	=50	=50	=50
1DM	D:maj	1r	.	.	102.478	.	r
=51	=51	=51	=51	=51	=51	=51	=51
*>Letter>B	*>Letter>B	*>Letter>B	*>Letter>B	*>Letter>B	*>Letter>B	*>Letter>B	*>Letter>B
*>Label>Chorus	*>Label>Chorus	*>Label>Chorus	*>Label>Chorus	*>Label>Chorus	*>Label>Chorus	*>Label>Chorus	*>Label>Chorus
1AM	A:maj	4r	.	.	104.58	newline	r
.	.	8r	.	.	.	.	.
.	.	4G	I've	.	.	.	.
.	.	4A	been	.	.	.	.
.	.	[8c	wai-	.	.	.	.
=52	=52	=52	=52	=52	=52	=52	=52
2CM	C:maj	8c]	_	.	106.665	.	r
.	.	4A	-ting	.	.	.	.
.	.	4G	so	.	.	.	.
2GM	G:maj	.	.	.	107.708	.	r
.	.	4.A	long	.	.	.	.
=53	=53	=53	=53	=53	=53	=53	=53
1AM	A:maj	4r	.	.	108.751	.	r
.	.	8r	.	.	.	.	.
.	.	4G	to	.	.	.	.
.	.	4A	be	.	.	.	.
.	.	[8c	where	.	.	.	.
=54	=54	=54	=54	=54	=54	=54	=54
2CM	C:maj	8c]	_	.	110.837	.	r
.	.	4A	I'm	.	.	.	.
.	.	4G	go-	.	.	.	.
2GM	G:maj	.	.	.	111.88	.	r
.	.	4A	-in'.	.	.	.	.
.	.	8r	.	.	.	.	.
=55	=55	=55	=55	=55	=55	=55	=55
1AM	A:maj	4r	.	.	112.922	newline	r
.	.	8r	.	.	.	.	.
.	.	4A	In	.	.	.	.
.	.	4c#	the	.	.	.	.
.	.	[8e	sun-	.	.	.	.
=56	=56	=56	=56	=56	=56	=56	=56
2CM	C:maj	8e]	_	.	114.995	.	r
.	.	4c#	-shine	.	.	.	.
.	.	4A	of	.	.	.	.
2GM	G:maj	.	.	.	116.031	.	r
.	.	8c#	your	.	.	.	.
.	.	4r	.	.	.	.	.
=57	=57	=57	=57	=57	=57	=57	=57
1AM	A:maj	4e	love.	.	117.067	.	r
.	.	16d	_	.	.	.	.
.	.	16e	_	.	.	.	.
.	.	8d	_	.	.	.	.
.	.	4c#	_	.	.	.	.
.	.	16B	_	.	.	.	.
.	.	16c#	_	.	.	.	.
.	.	8B	_	.	.	.	.
=58	=58	=58	=58	=58	=58	=58	=58
1AM	A:maj	2A	_	.	119.14	.	r
.	.	2r	.	.	.	.	.
=59	=59	=59	=59	=59	=59	=59	=59
*>Letter>D	*>Letter>D	*>Letter>D	*>Letter>D	*>Letter>D	*>Letter>D	*>Letter>D	*>Letter>D
*>Label>Instrumental	*>Label>Instrumental	*>Label>Instrumental	*>Label>Instrumental	*>Label>Instrumental	*>Label>Instrumental	*>Label>Instrumental	*>Label>Instrumental
1DM	D:maj	1r	.	.	121.212	newline	r
=60	=60	=60	=60	=60	=60	=60	=60
1DM	D:maj	1r	.	.	123.294	.	r
=61	=61	=61	=61	=61	=61	=61	=61
1DM	D:maj	1r	.	.	125.376	.	r
=62	=62	=62	=62	=62	=62	=62	=62
1DM	D:maj	1r	.	.	127.457	.	r
=63	=63	=63	=63	=63	=63	=63	=63
1DM	D:maj	1r	.	.	129.539	newline	r
=64	=64	=64	=64	=64	=64	=64	=64
1DM	D:maj	1r	.	.	131.596	.	r
=65	=65	=65	=65	=65	=65	=65	=65
1DM	D:maj	1r	.	.	133.654	.	r
=66	=66	=66	=66	=66	=66	=66	=66
1DM	D:maj	1r	.	.	135.712	.	r
=67	=67	=67	=67	=67	=67	=67	=67
1GM	G:maj	1r	.	.	137.769	newline	r
=68	=68	=68	=68	=68	=68	=68	=68
1GM	G:maj	1r	.	.	139.823	.	r
=69	=69	=69	=69	=69	=69	=69	=69
1GM	G:maj	1r	.	.	141.877	.	r
=70	=70	=70	=70	=70	=70	=70	=70
1GM	G:maj	1r	.	.	143.931	.	r
=71	=71	=71	=71	=71	=71	=71	=71
1DM	D:maj	1r	.	.	145.985	newline	r
=72	=72	=72	=72	=72	=72	=72	=72
1DM	D:maj	1r	.	.	148.062	.	r
=73	=73	=73	=73	=73	=73	=73	=73
1DM	D:maj	1r	.	.	150.14	.	r
=74	=74	=74	=74	=74	=74	=74	=74
1DM	D:maj	1r	.	.	152.217	.	r
=75	=75	=75	=75	=75	=75	=75	=75
1AM	A:maj	1r	.	.	154.294	newline	r
=76	=76	=76	=76	=76	=76	=76	=76
2CM	C:maj	1r	.	.	156.371	.	r
2GM	G:maj	.	.	.	157.41	.	r
=77	=77	=77	=77	=77	=77	=77	=77
1AM	A:maj	1r	.	.	158.448	.	r
=78	=78	=78	=78	=78	=78	=78	=78
2CM	C:maj	1r	.	.	160.525	.	r
2GM	G:maj	.	.	.	161.564	.	r
=79	=79	=79	=79	=79	=79	=79	=79
1AM	A:maj	1r	.	.	162.603	newline	r
=80	=80	=80	=80	=80	=80	=80	=80
2CM	C:maj	1r	.	.	164.656	.	r
2GM	G:maj	.	.	.	165.682	.	r
=81	=81	=81	=81	=81	=81	=81	=81
1AM	A:maj	1r	.	.	166.709	.	r
=82	=82	=82	=82	=82	=82	=82	=82
1AM	A:maj	1r	.	.	168.762	.	r
=83	=83	=83	=83	=83	=83	=83	=83
1DM	D:maj	1r	.	.	170.815	newline	r
=84	=84	=84	=84	=84	=84	=84	=84
1DM	D:maj	1r	.	.	172.917	.	r
=85	=85	=85	=85	=85	=85	=85	=85
1DM	D:maj	1r	.	.	175.018	.	r
=86	=86	=86	=86	=86	=86	=86	=86
1DM	D:maj	2r	.	.	177.119	.	r
.	.	4r	.	.	.	.	.
.	.	8r	.	.	.	.	.
.	.	8c	I'm	.	.	.	.
=87	=87	=87	=87	=87	=87	=87	=87
*>Letter>A	*>Letter>A	*>Letter>A	*>Letter>A	*>Letter>A	*>Letter>A	*>Letter>A	*>Letter>A
*>Label>Verse	*>Label>Verse	*>Label>Verse	*>Label>Verse	*>Label>Verse	*>Label>Verse	*>Label>Verse	*>Label>Verse
1DM	D:maj	8d	with	.	179.22	newline	r
.	.	8d	you	.	.	.	.
.	.	8c	my	.	.	.	.
.	.	8d	love.	.	.	.	.
.	.	4A	_	.	.	.	.
.	.	4r	.	.	.	.	.
=88	=88	=88	=88	=88	=88	=88	=88
1DM	D:maj	2r	.	.	181.302	.	r
.	.	4r	.	.	.	.	.
.	.	8r	.	.	.	.	.
.	.	8c	The	.	.	.	.
=89	=89	=89	=89	=89	=89	=89	=89
1DM	D:maj	8d	light	.	183.384	.	r
.	.	8a	shi-	.	.	.	.
.	.	8f#	-ning	.	.	.	.
.	.	8g	through	.	.	.	.
.	.	8f#	_	.	.	.	.
.	.	8g	on	.	.	.	.
.	.	8a	_	.	.	.	.
.	.	8g	you.	B	.	.	.
=90	=90	=90	=90	=90	=90	=90	=90
1DM	D:maj	4.f#	_	.	185.465	.	r
.	.	8d	_	.	.	.	.
.	.	4r	.	.	.	.	.
.	.	8A	Yes	.	.	.	.
.	.	8c	I'm	.	.	.	.
=91	=91	=91	=91	=91	=91	=91	=91
1DM	D:maj	8d	with	.	187.547	newline	r
.	.	8d	you	.	.	.	.
.	.	8c	my	.	.	.	.
.	.	8d	love.	C	.	.	.
.	.	8c	_	.	.	.	.
.	.	8d	_	.	.	.	.
.	.	4r	.	.	.	.	.
=92	=92	=92	=92	=92	=92	=92	=92
1DM	D:maj	2r	.	.	189.621	.	r
.	.	4r	.	.	.	.	.
.	.	8A	It's	.	.	.	.
.	.	8c	the	.	.	.	.
=93	=93	=93	=93	=93	=93	=93	=93
1DM	D:maj	8d	mor-	.	191.696	.	r
.	.	8d	-ning	.	.	.	.
.	.	8c	of	.	.	.	.
.	.	4d	just	.	.	.	.
.	.	4f#	we	.	.	.	.
.	.	16d	two.	B	.	.	.
.	.	16e	_	.	.	.	.
=94	=94	=94	=94	=94	=94	=94	=94
1DM	D:maj	4c	_	.	193.77	.	r
.	.	2r	.	.	.	.	.
.	.	8r	.	.	.	.	.
.	.	8f	I'll	.	.	.	.
=95	=95	=95	=95	=95	=95	=95	=95
1GM	G:maj	8g	stay	.	195.845	newline	r
.	.	8g	with	.	.	.	.
.	.	8f	you	.	.	.	.
.	.	4g	dar-	.	.	.	.
.	.	4f	-ling	.	.	.	.
.	.	[8d	now.	.	.	.	.
=96	=96	=96	=96	=96	=96	=96	=96
1GM	G:maj	8d]	_	.	197.912	.	r
.	.	2r	.	.	.	.	.
.	.	4r	.	.	.	.	.
.	.	8f	I'll	.	.	.	.
=97	=97	=97	=97	=97	=97	=97	=97
1GM	G:maj	8g	stay	.	199.978	.	r
.	.	8g	with	.	.	.	.
.	.	8f	you	.	.	.	.
.	.	8g	till	.	.	.	.
.	.	8r	.	.	.	.	.
.	.	8f	my	.	.	.	.
.	.	8r	.	.	.	.	.
.	.	[8a	seas	.	.	.	.
=98	=98	=98	=98	=98	=98	=98	=98
1GM	G:maj	8a]	_	.	202.045	.	r
.	.	8g	are	.	.	.	.
.	.	8f	_	.	.	.	.
.	.	8g	dried	.	.	.	.
.	.	8f	_	.	.	.	.
.	.	4g	up.	C	.	.	.
.	.	8f	_	.	.	.	.
=99	=99	=99	=99	=99	=99	=99	=99
1DM	D:maj	2f#	_	.	204.112	newline	r
.	.	2r	.	.	.	.	.
=100	=100	=100	=100	=100	=100	=100	=100
1DM	D:maj	1r	.	.	206.199	.	r
=101	=101	=101	=101	=101	=101	=101	=101
1DM	D:maj	1r	.	.	208.287	.	r
=102	=102	=102	=102	=102	=102	=102	=102
1DM	D:maj	1r	.	.	210.374	.	r
=103	=103	=103	=103	=103	=103	=103	=103
*>Letter>B	*>Letter>B	*>Letter>B	*>Letter>B	*>Letter>B	*>Letter>B	*>Letter>B	*>Letter>B
*>Label>Chorus	*>Label>Chorus	*>Label>Chorus	*>Label>Chorus	*>Label>Chorus	*>Label>Chorus	*>Label>Chorus	*>Label>Chorus
1AM	A:maj	4r	.	.	212.461	newline	r
.	.	8r	.	.	.	.	.
.	.	4G	I've	.	.	.	.
.	.	4A	been	.	.	.	.
.	.	[8c	wai-	.	.	.	.
=104	=104	=104	=104	=104	=104	=104	=104
2CM	C:maj	8c]	_	.	214.556	.	r
.	.	4A	-ting	.	.	.	.
.	.	4G	so	.	.	.	.
2GM	G:maj	.	.	.	215.604	.	r
.	.	4.A	long.	.	.	.	.
=105	=105	=105	=105	=105	=105	=105	=105
1AM	A:maj	4r	.	.	216.651	.	r
.	.	8r	.	.	.	.	.
.	.	4G	I've	.	.	.	.
.	.	4A	been	.	.	.	.
.	.	[8c	wai-	.	.	.	.
=106	=106	=106	=106	=106	=106	=106	=106
2CM	C:maj	8c]	_	.	218.746	.	r
.	.	8d	-ting	.	.	.	.
.	.	8c	_	.	.	.	.
.	.	8e	so	.	.	.	.
2GM	G:maj	8c	_	.	219.793	.	r
.	.	8d	long.	.	.	.	.
.	.	4c	_	.	.	.	.
=107	=107	=107	=107	=107	=107	=107	=107
1AM	A:maj	4r	.	.	220.841	newline	r
.	.	8r	.	.	.	.	.
.	.	4G	I've	.	.	.	.
.	.	4A	been	.	.	.	.
.	.	[8c	wai-	.	.	.	.
=108	=108	=108	=108	=108	=108	=108	=108
2CM	C:maj	8c]	_	.	222.916	.	r
.	.	4A	-ting	.	.	.	.
.	.	4G	so	.	.	.	.
2GM	G:maj	.	.	.	223.954	.	r
.	.	4A	long	.	.	.	.
.	.	8r	.	.	.	.	.
=109	=109	=109	=109	=109	=109	=109	=109
1AM	A:maj	4r	.	.	224.992	.	r
.	.	8r	.	.	.	.	.
.	.	4G	to	.	.	.	.
.	.	4A	be	.	.	.	.
.	.	[8c	where	.	.	.	.
=110	=110	=110	=110	=110	=110	=110	=110
2CM	C:maj	8c]	_	.	227.067	.	r
.	.	4A	I'm	.	.	.	.
.	.	4G	go-	.	.	.	.
2GM	G:maj	.	.	.	228.105	.	r
.	.	8A	-in'.	.	.	.	.
.	.	4r	.	.	.	.	.
=111	=111	=111	=111	=111	=111	=111	=111
1AM	A:maj	4r	.	.	229.143	newline	r
.	.	8r	.	.	.	.	.
.	.	4G	In	.	.	.	.
.	.	4A	the	.	.	.	.
.	.	[8c	sun-	.	.	.	.
=112	=112	=112	=112	=112	=112	=112	=112
2CM	C:maj	8c]	_	.	230.789	.	r
.	.	4A	-shine	.	.	.	.
.	.	4G	of	.	.	.	.
2GM	G:maj	.	.	.	231.612	.	r
.	.	8A	your	.	.	.	.
.	.	4r	.	.	.	.	.
=113	=113	=113	=113	=113	=113	=113	=113
1AM	A:maj	4e	love.	.	232.435	.	r
.	.	16d	_	.	.	.	.
.	.	16e	_	.	.	.	.
.	.	8d	_	.	.	.	.
.	.	4c#	_	.	.	.	.
.	.	16B	_	.	.	.	.
.	.	16c#	_	.	.	.	.
.	.	8B	_	.	.	.	.
=114	=114	=114	=114	=114	=114	=114	=114
1AM	A:maj	[1A	_	.	234.081	.	r
=115	=115	=115	=115	=115	=115	=115	=115
1AM	A:maj	2A]	_	.	235.727	.	r
.	.	2r	.	.	.	.	.
=116	=116	=116	=116	=116	=116	=116	=116
1AM	A:maj	1r	.	.	237.373	.	r
=117	=117	=117	=117	=117	=117	=117	=117
1AM	A:maj	1r	.	.	239.02	.	r
=118	=118	=118	=118	=118	=118	=118	=118
1AM	A:maj	1r	.	.	240.666	.	r
=119	=119	=119	=119	=119	=119	=119	=119
1AM	A:maj	1r	.	.	242.312	.	r
=120	=120	=120	=120	=120	=120	=120	=120
1AM	A:maj	1r	.	.	243.958	.	r
=121	=121	=121	=121	=121	=121	=121	=121
*>Letter>E	*>Letter>E	*>Letter>E	*>Letter>E	*>Letter>E	*>Letter>E	*>Letter>E	*>Letter>E
*>Label>Fadeout	*>Label>Fadeout	*>Label>Fadeout	*>Label>Fadeout	*>Label>Fadeout	*>Label>Fadeout	*>Label>Fadeout	*>Label>Fadeout
1AM	A:maj	1r	.	.	245.604	newline	r
1r;	1r	r;	.	.	250.119	.	r
1r;	1r	r;	.	.	253.237	.	r
*-	*-	*-	*-	*-	*-	*-	*-
!!!BillboardChartDate: 1968/03/30
!!!BillboardPeak: 5
!!!BillboardWeeksOnChart: 26
!!!COC: Cream
!!!ENC: Nathaniel Condit-Schultz
!!!EST: Awating manual error checking and editing.
!!!OTL: Sunshine Of Your Love
!!!RDF**chordsym: original McGill chord annotation + (implied pitch class set, with bass pitch in first position)
!!!RDF**harmony: **recip + pitch class of root + harmonic quality
!!!RDF**leadinstrument: original McGill primary instrumentation annotation
!!!RDF**phrase: newline = linebreak in original McGill transcription
!!!RDF**timestamp: McGill audio timestamp in seconds
!!!RDT: 2017/01/12/
!!!SampleActualRank: 60
!!!SampleID#: 0114
!!!SampleTargetRank: 60
!!!MBID: 49af3ae2-a738-4e2c-8801-f607098b380b
